X: 1
T: Gr\uan\vcarsko Horo #1
O: Bulgaria
B: Kosta Kolev "Narodni hora i r\ua\vcenici za akkordeon" v.1
Z: 2003 John Chambers <jc@trillian.mit.edu>
%Q: "Brzo" 2/16 3/16 2/16 2/16=40
M: 9/16
L: 1/16
K: F
"A"
[|"F"c2 (ef)f f2f2 | "C"(ef) (~g2f) (~e3d) | (ef) (~g2f) ~e2(dc) | (~c2 BAG) "F"A4 |
| "F"c2 (ef)f f2f2 | "C"(ef) (~g2f) (~e3d) | (ef) (agf) ~e2(dc) | (cB) (dcB) "F"A4 |]
"B"
|:"C"(ef) (~g2f) (~e2dc) | "F"(~c2 BAB) "Bb"{c}d4 | "C"(ef) (agf) e2d2 | (~c2 BAG) "F"A4 :|
"C1"
|:"C"~c2 (BAG) "F"(AF)(BF) | "C"~c2 (BGB) "F"~A2(AF) | "C"~c2 (BGB) "F"(AF)(cF) | "C"(dc) (BGB) [1 "F"~A2(AF) :|2 "F"A4 |]
"D"
|:"C"(cG) (efd) (~e2"G"dc) | "C"(~cG) (efg) (~e2"G"dc) | "C"(cG) (gfg) (~e2"G"dc) | "C"~c2 (BAG) [1 "F"~A2(AF) :|2 "F"A4 |]
"C2"
|:"C"~c2 (BAG) "F"(AF)(BF) | "C"~c2 (BGB) "F"~A2(AF) | "C"~c2 (BGB) "F"(AF)(cF) | "C"(dc) (BGB) [1 "F"~A2(AF) :|2 "F"A4 |]
"E"
|: "G"(FG) (~G2D) (GD)(GD) :|\
"F"\
|:::"G"(GD) ~B2_A (BD)(AD) | (FG) (~G2D) [1-3 (GD)(GD) |4 G2G2 |]
